img/home/icons/icon-3.svg

<svg height="72" viewBox="0 0 71 72" width="71" xmlns="http://www.w3.org/2000/svg" xmlns:xlink="http://www.w3.org/1999/xlink"><mask id="a" fill="#fff"><path d="m.00053924 0h70.47603796v71.802h-70.47603796z" fill="#fff" fill-rule="evenodd"/></mask><path d="m58.4119696 65.35449c.9895063.4689 1.7165823.6129 2.1848228.4374v-.6129c0-.5841-.1752532-1.3122-.523962-2.1879-.5248608-1.1691-1.224076-2.2761-2.0976456-3.3264-.7028101-.9936-1.4901013-1.7811-2.3636709-2.3661-.6992152-.5256-1.3418101-.8748-1.9232911-1.0503-.5832785-.1755-.9607469-.2061-1.136-.0873-.1743544.1152-.2498481.4815-.2183924 1.0935.0287595.6129.2183924 1.3005.568 2.0574.4053291.9936 1.0182658 1.9845 1.8352152 2.979 1.1647595 1.4004 2.3915316 2.4228 3.674924 3.0636zm-20.5468607-21.1914-5.2504051-5.7771h-11.1074557c-.8735696 0-1.5727848-.2781-2.0967468-.8343-.5239621-.5535-.7863924-1.269-.7863924-2.1447s.2624303-1.575.7863924-2.1006c.523962-.5247 1.2231772-.7875 2.0967468-.7875h5.8633418l-4.3768355-4.9923c-3.4394557.4653-6.5553671 1.1655-9.3522278 2.1006-2.5092658.8748-4.48917723 1.8414-5.95051901 2.8917-1.45415189 1.0503-2.18392405 2.0124-2.18392405 2.8881 0 1.2258 1.22317722 2.5101 3.67043038 3.8547 2.62879748 1.4004 6.03769618 2.538 10.23298738 3.4137 4.7821645.9909 9.9696582 1.4877 15.5642784 1.4877zm-5.3384811-17.6868c-.936481.0558-1.6914177.0279-2.272-.0873l4.9825823 5.8671h11.630519c.8744684 0 1.588962.2628 2.1416836.7875.5554177.5256.8304303 1.2258.8304303 2.1015 0 .8748-.2750126 1.575-.8304303 2.1006-.5527216.5247-1.2672152.7875-2.1416836.7875h-6.6452405l4.6347722 5.2542c3.8456835-.4653 7.3147974-1.1682 10.4046455-2.1006 2.799557-.8748 5.0131393-1.854 6.6461393-2.9349 1.6321012-1.0782 2.4472531-2.1168 2.4472531-3.1068 0-1.2258-1.2240759-2.511-3.6713291-3.852-2.6225063-1.4031-6.0341012-2.5407-10.2320886-3.4164-4.7201519-.9945-9.8806835-1.4877-15.4771013-1.4877zm-19.4971392-12.2607c.7558355.4662 1.4235949.7884 2.0104684.963.5805822.1746.9868101.2034 1.2240759.0873v-.5247c0-.585-.1752532-1.3446-.5248607-2.2761-.4682406-1.1691-1.1674557-2.2752-2.0976456-3.3291-.6992152-.9342-1.4604431-1.7226-2.2791899-2.3634-.6992152-.5247-1.3543924-.8748-1.96643037-1.0503-.61203798-.1746-1.03624051-.2061-1.26721519-.0873-.11863291.1746-.14289873.5256-.08717722 1.0503.05662026.6408.26153165 1.3725.61203798 2.1879.41162025.9945 1.02275949 1.9566 1.8352152 2.8917.8178481.9909 1.6662532 1.8072 2.5407215 2.4507zm43.4555949 57.0942c-1.162962-.4689-2.3034557-1.1259-3.4088987-1.9701-1.1072405-.8469-2.0976456-1.8252-2.9739114-2.9349-2.5065696-3.4452-3.759405-6.5646-3.759405-9.369 0-.5841.1761519-1.4598.5248607-2.6253l-4.0236329-4.6422c-1.5727848.1746-4.1081139.2628-7.6068861.2628-6.0062405 0-11.6323164-.5571-16.8755316-1.6641-5.5388988-1.1682-9.91483546-2.7999-13.11702534-4.9041-3.49697468-2.2761-5.24411392-4.9608-5.24411392-8.0559 0-3.0942 1.74713924-5.8086 5.24411392-8.1432 3.32082279-2.2194 7.78483544-3.8826 13.37945574-4.9923l-1.1368988-1.1376c-1.7480379.2907-3.6461645-.0594-5.6808987-1.0503-2.04192406-.9945-3.94005064-2.4822-5.68808862-4.4676-1.04882278-1.1655-1.83611392-2.3787-2.36007594-3.6324-.52486076-1.2564-.72977216-2.3787-.61113925-3.3723-.17525316-.4095-.26243037-1.1106-.26243037-2.1006 0-2.3355.66775949-4.086 2.00956962-5.2551.87446835-.7011 1.95474683-1.1097 3.2345443-1.2258 1.28608861-.1188 2.65306326.1161 4.11440506.7002 1.1611646.4662 2.2980633 1.1259 3.4088987 1.9692 1.1045443.8478 2.0976456 1.8261 2.972114 2.9358 1.9223924 2.2752 3.177924 4.7295 3.7576076 7.3557.2309746.9909.1437974 2.4507-.2624304 4.3794l3.4969747 4.0266c4.313924-.3501 7.5233038-.5256 9.6209493-.5256 6.0619621 0 11.6871393.5535 16.8782279 1.6632 5.5371012 1.1097 9.9085443 2.7162 13.1170253 4.8168 3.4960759 2.2761 5.2441139 4.9617 5.2441139 8.0559 0 3.3291-1.9817088 6.1866-5.9460253 8.5806-3.5553924 2.1609-8.4543924 3.7953-14.6907089 4.905l1.4011266 1.7505c1.6303038-.2907 3.4529367.0441 5.4634051 1.0062 2.0131645.9666 3.8924177 2.4669 5.6404557 4.5117 2.2162785 2.6253 3.4996709 5.2983 3.8492785 8.0118.3496076 2.7162-.3496076 4.8015-2.1012405 6.2613-1.748038 1.4598-4.2824684 1.7505-7.6077849.8757z" fill="#ff5722" fill-rule="evenodd" mask="url(#a)"/></svg>

<?xml version="1.0" encoding="UTF-8"?>
<svg width="71px" height="72px" viewBox="0 0 71 72" version="1.1" xmlns="http://www.w3.org/2000/svg" xmlns:xlink="http://www.w3.org/1999/xlink">
    <!-- Generator: Sketch 51.3 (57544) - http://www.bohemiancoding.com/sketch -->
    <title>icon-3</title>
    <desc>Created with Sketch.</desc>
    <defs>
        <polygon id="path-1" points="0.000539240506 0 70.4765772 0 70.4765772 71.802 0.000539240506 71.802"></polygon>
    </defs>
    <g id="Home-&amp;-Quote" stroke="none" stroke-width="1" fill="none" fill-rule="evenodd">
        <g id="TT-Home-01" transform="translate(-829.000000, -4949.000000)">
            <g id="icon-3" transform="translate(829.000000, 4949.000000)">
                <mask id="mask-2" fill="white">
                    <use xlink:href="#path-1"></use>
                </mask>
                <g id="Clip-2"></g>
                <path d="M58.4119696,65.35449 C59.4014759,65.82339 60.1285519,65.96739 60.5967924,65.79189 L60.5967924,65.17899 C60.5967924,64.59489 60.4215392,63.86679 60.0728304,62.99109 C59.5479696,61.82199 58.8487544,60.71499 57.9751848,59.66469 C57.2723747,58.67109 56.4850835,57.88359 55.6115139,57.29859 C54.9122987,56.77299 54.2697038,56.42379 53.6882228,56.24829 C53.1049443,56.07279 52.7274759,56.04219 52.5522228,56.16099 C52.3778684,56.27619 52.3023747,56.64249 52.3338304,57.25449 C52.3625899,57.86739 52.5522228,58.55499 52.9018304,59.31189 C53.3071595,60.30549 53.9200962,61.29639 54.7370456,62.29089 C55.9018051,63.69129 57.1285772,64.71369 58.4119696,65.35449 Z M37.8651089,44.16309 L32.6147038,38.38599 L21.5072481,38.38599 C20.6336785,38.38599 19.9344633,38.10789 19.4105013,37.55169 C18.8865392,36.99819 18.6241089,36.28269 18.6241089,35.40699 C18.6241089,34.53129 18.8865392,33.83199 19.4105013,33.30639 C19.9344633,32.78169 20.6336785,32.51889 21.5072481,32.51889 L27.3705899,32.51889 L22.9937544,27.52659 C19.5542987,27.99189 16.4383873,28.69209 13.6415266,29.62719 C11.1322608,30.50199 9.15234937,31.46859 7.69100759,32.51889 C6.2368557,33.56919 5.50708354,34.53129 5.50708354,35.40699 C5.50708354,36.63279 6.73026076,37.91709 9.17751392,39.26169 C11.8063114,40.66209 15.2152101,41.79969 19.4105013,42.67539 C24.1926658,43.66629 29.3801595,44.16309 34.9747797,44.16309 L37.8651089,44.16309 Z M32.5266278,26.47629 C31.5901468,26.53209 30.8352101,26.50419 30.2546278,26.38899 L35.2372101,32.25609 L46.8677291,32.25609 C47.7421975,32.25609 48.4566911,32.51889 49.0094127,33.04359 C49.5648304,33.56919 49.839843,34.26939 49.839843,35.14509 C49.839843,36.01989 49.5648304,36.72009 49.0094127,37.24569 C48.4566911,37.77039 47.7421975,38.03319 46.8677291,38.03319 L40.2224886,38.03319 L44.8572608,43.28739 C48.7029443,42.82209 52.1720582,42.11919 55.2619063,41.18679 C58.0614633,40.31199 60.2750456,39.33279 61.9080456,38.25189 C63.5401468,37.17369 64.3552987,36.13509 64.3552987,35.14509 C64.3552987,33.91929 63.1312228,32.63409 60.6839696,31.29309 C58.0614633,29.88999 54.6498684,28.75239 50.451881,27.87669 C45.7317291,26.88219 40.5711975,26.38899 34.9747797,26.38899 L32.5266278,26.47629 Z M13.0294886,14.21559 C13.7853241,14.68179 14.4530835,15.00399 15.039957,15.17859 C15.6205392,15.35319 16.0267671,15.38199 16.2640329,15.26589 L16.2640329,14.74119 C16.2640329,14.15619 16.0887797,13.39659 15.7391722,12.46509 C15.2709316,11.29599 14.5717165,10.18989 13.6415266,9.13599 C12.9423114,8.20179 12.1810835,7.41339 11.3623367,6.77259 C10.6631215,6.24789 10.0079443,5.89779 9.39590633,5.72229 C8.78386835,5.54769 8.35966582,5.51619 8.12869114,5.63499 C8.01005823,5.80959 7.98579241,6.16059 8.04151392,6.68529 C8.09813418,7.32609 8.30304557,8.05779 8.6535519,8.87319 C9.06517215,9.86769 9.67631139,10.82979 10.4887671,11.76489 C11.3066152,12.75579 12.1550203,13.57209 13.0294886,14.21559 Z M56.4850835,71.30979 C55.3221215,70.84089 54.1816278,70.18389 53.0761848,69.33969 C51.9689443,68.49279 50.9785392,67.51449 50.1022734,66.40479 C47.5957038,62.95959 46.3428684,59.84019 46.3428684,57.03579 C46.3428684,56.45169 46.5190203,55.57599 46.8677291,54.41049 L42.8440962,49.76829 C41.2713114,49.94289 38.7359823,50.03109 35.2372101,50.03109 C29.2309696,50.03109 23.6048937,49.47399 18.3616785,48.36699 C12.8227797,47.19879 8.44684304,45.56709 5.24465316,43.46289 C1.74767848,41.18679 0.000539240506,38.50209 0.000539240506,35.40699 C0.000539240506,32.31279 1.74767848,29.59839 5.24465316,27.26379 C8.56547595,25.04439 13.0294886,23.38119 18.6241089,22.27149 L17.4872101,21.13389 C15.7391722,21.42459 13.8410456,21.07449 11.8063114,20.08359 C9.76438734,19.08909 7.86626076,17.60139 6.11822278,15.61599 C5.0694,14.45049 4.28210886,13.23729 3.75814684,11.98359 C3.23328608,10.72719 3.02837468,9.60489 3.14700759,8.61129 C2.97175443,8.20179 2.88457722,7.50069 2.88457722,6.51069 C2.88457722,4.17519 3.55233671,2.42469 4.89414684,1.25559 C5.76861519,0.55449 6.84889367,0.14589 8.12869114,0.02979 C9.41477975,-0.08901 10.7817544,0.14589 12.2430962,0.72999 C13.4042608,1.19619 14.5411595,1.85589 15.6519949,2.69919 C16.7565392,3.54699 17.7496405,4.52529 18.6241089,5.63499 C20.5465013,7.91019 21.8020329,10.36449 22.3817165,12.99069 C22.6126911,13.98159 22.5255139,15.44139 22.1192861,17.37009 L25.6162608,21.39669 C29.9301848,21.04659 33.1395646,20.87109 35.2372101,20.87109 C41.2991722,20.87109 46.9243494,21.42459 52.115438,22.53429 C57.6525392,23.64399 62.0239823,25.25049 65.2324633,27.35109 C68.7285392,29.62719 70.4765772,32.31279 70.4765772,35.40699 C70.4765772,38.73609 68.4948684,41.59359 64.5305519,43.98759 C60.9751595,46.14849 56.0761595,47.78289 49.839843,48.89259 L51.2409696,50.64309 C52.8712734,50.35239 54.6939063,50.68719 56.7043747,51.64929 C58.7175392,52.61589 60.5967924,54.11619 62.3448304,56.16099 C64.5611089,58.78629 65.8445013,61.45929 66.1941089,64.17279 C66.5437165,66.88899 65.8445013,68.97429 64.0928684,70.43409 C62.3448304,71.89389 59.8104,72.18459 56.4850835,71.30979 Z" id="Fill-1" fill="#FF5722" mask="url(#mask-2)"></path>
            </g>
        </g>
    </g>
</svg>
